static/logos/marvel-glyph-color.svg

<svg width="50" height="64" viewBox="0 0 50 64" fill="none" xmlns="http://www.w3.org/2000/svg">
<path d="M21.8405 21.0528C25.2615 21.0528 18.9457 38.6842 19.7352 46.3158C20.5247 53.9476 28.9458 51.8421 28.4195 47.3684C27.3668 39.7369 32.63 15.7896 37.63 15.7896C41.3142 15.7896 33.4195 32.1053 34.9984 42.3684C36.051 48.9474 44.9984 47.1055 43.9458 42.6319C41.051 29.2108 50.5247 16.3159 49.2089 6.84225C48.6826 2.89488 46.3142 0.789612 43.9458 0.789612C35.5247 0.789612 28.6826 18.158 28.6826 18.158C28.6826 18.158 29.7352 8.42119 22.63 7.89488C12.63 7.36856 2.3668 32.6319 2.62996 55.5263C2.89311 62.8947 11.8405 61.5792 11.3142 55.7897C10.7878 45.5266 16.5773 21.0528 21.8405 21.0528Z" fill="#1DADFF"/>
</svg>

<svg xmlns="http://www.w3.org/2000/svg" width="50" height="64" fill="none"><path fill="#1DADFF" d="M21.84 21.053c3.422 0-2.894 17.631-2.105 25.263.79 7.632 9.21 5.526 8.684 1.052-1.052-7.631 4.211-31.578 9.211-31.578 3.684 0-4.21 16.315-2.632 26.578 1.053 6.58 10 4.737 8.948.264-2.895-13.421 6.579-26.316 5.263-35.79C48.683 2.895 46.314.79 43.946.79c-8.421 0-15.263 17.368-15.263 17.368s1.052-9.737-6.053-10.263c-10-.526-20.263 24.737-20 47.631.263 7.369 9.21 6.053 8.684.264-.526-10.263 5.263-34.737 10.526-34.737Z"/></svg>
